svg/strawberry.svg

<svg viewBox="0 0 20 20" xmlns="http://www.w3.org/2000/svg">
<rect width="100%" height="100%" fill="#FFE100"/>
<path d="M8.77441 6.92819C7.88302 6.92819 7.01391 6.62272 6.29337 6.06523C5.63968 5.5612 4.53286 4.58369 4.44372 3.69018C4.42826 3.55636 4.44009 3.42069 4.47845 3.29184C4.51682 3.16298 4.58089 3.04376 4.66657 2.94177C4.84485 2.72794 5.09741 2.60575 5.41683 2.58284L5.5134 2.5752C6.08537 2.5752 6.8282 2.90359 7.53389 3.4458C7.48189 2.77376 7.6676 2.27737 8.0613 2.10936H8.06872C8.13558 2.07881 8.20243 2.06353 8.27672 2.0559H8.31386C8.72984 2.0559 9.04926 2.49883 9.28696 3.0105C9.69552 1.84207 10.3789 0.803458 11.0995 0.75H11.1515C11.2555 0.75 11.3595 0.77291 11.456 0.818731C12.4663 1.2693 12.0354 3.33888 11.6714 4.36222C11.2919 5.44742 10.5129 6.33597 9.50238 6.83655L9.43553 6.87473L9.36125 6.88237C9.16704 6.91285 8.97087 6.92817 8.77441 6.92819Z" fill="#1D1D1B"/>
<path d="M9.0046 6.37066C8.14292 6.43175 7.28867 6.16446 6.59041 5.62225C5.63216 4.87384 5.00076 4.11779 4.95619 3.63667C4.94841 3.57802 4.95302 3.51833 4.96968 3.46167C4.98634 3.405 5.01467 3.35269 5.05275 3.30829C5.14189 3.19374 5.26817 3.14028 5.44645 3.12501C6.011 3.08682 6.90239 3.54503 7.66751 4.26289L8.38805 4.94257L8.13549 3.94978C7.97207 3.28538 8.02406 2.72025 8.25434 2.62098L8.26177 2.61334L8.30634 2.59807C8.43262 2.59043 8.74461 2.91118 9.04174 3.80468L9.35373 4.75929L9.59886 3.78177C9.96285 2.33841 10.6834 1.33035 11.1291 1.2998C11.1737 1.2998 11.2108 1.30744 11.2554 1.32272C11.7456 1.54418 11.6119 2.97227 11.1885 4.17125C10.8566 5.12494 10.1737 5.90651 9.28687 6.34775L9.0046 6.37066Z" fill="url(#paint0_linear_11_253)"/>
<path d="M10.7354 18.75C10.4977 18.7423 10.2749 18.6583 10.0892 18.498C9.8886 18.6201 9.65832 18.6812 9.42804 18.6736C9.11605 18.6812 8.81149 18.5743 8.56636 18.3758C8.3658 18.2154 8.18752 18.0321 8.01667 17.8335C7.92753 17.8794 7.83096 17.9023 7.73439 17.9023C7.49669 17.9023 7.29613 17.7648 7.16985 17.6655C5.88126 16.5419 4.82968 15.1593 4.07968 13.6027C3.99054 13.4271 3.59684 12.6023 3.55227 11.915C3.29971 11.5714 3.10658 11.1819 2.99515 10.7695C2.9334 10.5415 2.92271 10.3022 2.96388 10.0694C3.00505 9.83658 3.09701 9.61641 3.23286 9.4254C2.83916 8.95956 2.66088 8.2646 2.79459 7.55438C3.02736 6.65558 3.51011 5.8461 4.18368 5.22515C4.37681 5.04186 4.57738 4.94259 4.78537 4.94259C4.88015 4.93963 4.97442 4.9579 5.06165 4.99614C5.14887 5.03439 5.22696 5.09168 5.29049 5.16405C5.49105 4.92731 5.73619 4.72875 6.00361 4.58365C6.24874 4.44619 6.53101 4.36982 6.81329 4.36982C7.11042 4.36982 7.40755 4.46147 7.66011 4.62948C7.80578 4.32998 8.02941 4.07791 8.30612 3.90129C8.58283 3.72467 8.90178 3.63043 9.22748 3.62905C9.44657 3.63037 9.66307 3.67781 9.86365 3.76843C10.0642 3.85906 10.2446 3.99095 10.3937 4.15599C10.4457 4.06435 10.4977 3.98034 10.5571 3.90398C10.6734 3.76567 10.8237 3.66216 10.9924 3.60437C11.161 3.54657 11.3417 3.53663 11.5154 3.57559C12.0799 3.67487 12.5999 3.96507 13.001 4.40037L13.0828 4.27818C13.1418 4.20519 13.2156 4.14622 13.2989 4.10535C13.3823 4.06448 13.4733 4.04268 13.5656 4.04144C13.6102 4.04144 13.6547 4.04144 13.6919 4.05671C13.8999 4.0949 14.249 4.25527 14.6278 4.78221C14.7266 4.76229 14.8286 4.76754 14.925 4.79749H14.9398C15.0216 4.71512 15.1261 4.66067 15.2391 4.64153C15.3521 4.6224 15.4681 4.63953 15.5712 4.69057C16.7226 5.21751 17.1015 7.01217 17.2203 8.42498C17.2723 9.03592 17.3169 10.4258 16.73 10.9604L16.7226 11.052C16.5146 13.1674 15.6604 15.4738 14.4867 17.0775C14.4273 17.1539 14.3084 17.3142 14.1153 17.3982C13.9667 17.7572 13.7439 18.0627 13.3502 18.0703H13.3353C13.2536 18.0703 13.1645 18.055 13.0902 18.0168C12.9775 18.1499 12.8218 18.2366 12.6519 18.2612L12.4959 18.2688L12.2954 18.2459L12.2731 18.2765C12.1919 18.3734 12.0917 18.4514 11.979 18.5054C11.8663 18.5593 11.7437 18.5881 11.6194 18.5896H11.5971C11.4857 18.5896 11.3817 18.559 11.2851 18.5056C11.1906 18.6236 11.0595 18.7045 10.9137 18.7347L10.7354 18.75Z" fill="#1D1D1B"/>
<path d="M16.6409 8.41735C16.5517 7.39401 16.262 5.57645 15.3038 5.14115C15.0586 5.0266 15.2815 5.92011 15.326 6.19503L15.3038 6.1874C15.2072 5.94302 14.9546 5.33207 14.7244 5.27098C14.5312 5.21752 14.5164 5.49244 14.5832 5.82846H14.5609C14.3455 5.33207 13.9295 4.62185 13.5284 4.53784C13.2164 4.47675 13.2907 5.4008 13.3873 6.05757C12.9713 5.05714 12.325 4.23237 11.3593 4.05672C10.52 3.90398 10.5794 5.30152 10.6611 6.11866C10.5348 5.14879 9.94055 3.8658 8.8263 4.17127C8.17262 4.34692 7.89777 4.95787 7.8012 5.66809C7.54864 4.9655 6.83553 4.64476 6.16698 5.01132C5.699 5.26334 5.28302 5.76737 5.08988 6.33249C5.05274 5.88192 4.91903 5.12588 4.45848 5.57645C3.86542 6.11709 3.43717 6.82259 3.22538 7.60785C3.08425 8.32571 3.37395 9.14285 4.08706 9.37195V9.41014L3.94593 9.44068C3.4928 9.57815 3.30709 10.1204 3.41852 10.5633C3.52994 10.968 3.72308 11.3423 3.9905 11.663C3.95335 12.1899 4.33962 13.0605 4.45848 13.2973C5.14931 14.6719 6.21898 16.2222 7.4075 17.1768C8.00919 17.6579 7.74178 16.6651 7.57093 16.1535C7.97948 16.8942 8.18747 17.3906 8.81145 17.887C9.25714 18.2536 10.0891 18.0627 9.97026 17.4746C10.2005 18.0245 10.52 18.1925 10.7428 18.139C10.9285 18.1008 10.9656 17.6503 10.9062 17.2608C10.8617 16.9706 10.8542 16.9248 10.7948 16.6346H10.8245C10.9508 17.1157 11.2182 17.9863 11.5376 17.9939C11.8273 17.9939 12.0205 17.6503 11.9833 17.215L11.9313 16.7568C12.117 17.6197 12.2656 17.6961 12.5107 17.6655C12.7856 17.6197 12.845 17.0393 12.8599 16.4742C12.8673 16.1916 12.8599 16.3291 12.845 16.0465L12.8747 16.0389C12.9193 16.4207 12.9119 17.4746 13.2684 17.467C13.5358 17.4594 13.6695 16.856 13.781 16.4055C13.7438 16.772 13.7735 17.0011 14.0112 16.6804C15.1552 15.1225 15.95 12.9307 16.1432 10.9451C16.158 10.8153 16.1506 10.6855 16.1283 10.5557C16.1729 10.5633 16.2249 10.5557 16.262 10.5327C16.6929 10.3113 16.6929 9.01302 16.6409 8.41735ZM12.1765 8.20352H12.2136C12.3325 8.20352 12.481 8.43262 12.4884 8.58536C12.4959 8.69991 12.4587 8.78392 12.3473 8.79155C12.2136 8.79919 12.1022 8.60063 12.0873 8.43262C12.0799 8.31807 12.1096 8.2417 12.1765 8.20352ZM12.429 9.71561L12.481 9.70034C12.533 9.9829 12.6444 10.5251 12.8153 10.9146C12.7113 10.884 12.5924 10.8688 12.481 10.8688C12.5256 10.5022 12.4736 10.0211 12.429 9.71561ZM10.6759 6.29431L10.7057 6.55396C10.7428 6.88235 10.8542 7.82931 11.0325 8.79155C10.8765 8.42499 10.6537 8.11951 10.312 8.0126L10.3045 7.9515C10.7057 7.46275 10.7354 6.88998 10.6759 6.29431ZM10.9285 11.4874C11.3073 11.4492 11.4039 10.6855 11.3742 10.2196C11.4931 10.6015 11.6193 10.9222 11.7679 11.1284C11.3296 11.5561 11.3073 12.4725 11.3816 13.2744C11.2702 12.3503 10.7948 11.4033 9.89598 11.3193C9.94797 10.907 9.9034 10.3342 9.85884 10.0287C9.82169 9.73852 9.76227 9.43305 9.71027 9.15048L9.74741 9.14285C9.92569 9.75379 10.3045 11.5408 10.9285 11.4874ZM9.81427 7.82931C9.6657 7.85986 9.53199 7.65367 9.50971 7.43983C9.49485 7.27946 9.56913 7.18018 9.64342 7.16491C9.77712 7.13436 9.91083 7.36347 9.93312 7.56966C9.94797 7.67658 9.94055 7.79877 9.81427 7.82931ZM5.00817 7.21073C5.07502 7.67658 5.31273 7.89041 5.67671 7.76058C5.72871 7.74531 5.86242 7.62312 5.90699 7.58493C5.78814 8.19588 5.76585 8.8221 5.84014 9.44068C5.91442 10.0364 6.16698 10.9451 6.61268 11.5103C5.82528 11.6248 5.95156 12.4572 6.18184 13.1445C6.30812 13.5264 6.46411 13.9082 6.63496 14.2901C6.40469 14.0228 6.12984 13.8319 5.81785 13.8166L5.803 13.7784C5.95899 13.702 6.13727 13.5035 5.86985 12.7627C5.803 12.5871 5.72871 12.419 5.63957 12.2587C6.15212 11.8539 5.95899 10.5557 5.86985 10.0669C5.72128 9.24976 5.38701 8.06605 4.41391 7.93623V7.89804C4.6739 7.73767 4.88189 7.50093 5.00817 7.21073ZM5.41672 13.5569C5.3053 13.534 5.16416 13.3584 5.09731 13.2133C5.06017 13.1216 5.0676 13.0453 5.13445 13.0529C5.22359 13.0682 5.40187 13.2744 5.46129 13.4118C5.49844 13.5035 5.50586 13.5722 5.41672 13.5569ZM6.00356 14.5879C5.89956 14.5574 5.751 14.3741 5.67671 14.229C5.63214 14.1297 5.63957 14.0533 5.70643 14.0686C5.79557 14.0915 5.9887 14.3206 6.05556 14.4581C6.0927 14.5497 6.0927 14.6185 6.00356 14.5879ZM7.82349 13.3202L7.80863 13.2744C8.07605 13.198 8.39546 13.2056 8.23204 12.3961C8.18747 12.1823 8.07605 11.999 7.92005 11.8616C8.2989 11.4874 8.23947 10.5709 8.15776 10.1204C7.98691 9.15048 7.66006 8.05078 7.11037 7.24128C7.43722 7.31765 7.65264 7.08854 7.77892 6.78307C7.80863 7.23364 7.86063 7.65367 7.9052 7.96678C7.99434 8.677 8.49946 10.7237 9.10115 11.5026C8.54403 11.9456 8.67031 13.0529 8.86345 13.9082C8.61831 13.5646 8.27661 13.3126 7.82349 13.3202ZM9.01944 16.1305C9.20515 16.0313 9.30171 15.8556 9.33886 15.6494C9.43542 15.9625 9.53199 16.2756 9.64342 16.5811C9.50228 16.3673 9.31657 16.2145 9.05658 16.2604L9.01944 16.1305ZM10.6908 14.9927C10.5794 15.0156 10.4531 14.7941 10.416 14.5879C10.3862 14.4275 10.4308 14.3359 10.4902 14.3283C10.5942 14.3053 10.7502 14.5344 10.7874 14.733C10.8022 14.8476 10.7799 14.9774 10.6908 14.9927ZM11.1588 15.1759L11.1514 15.1148C11.4262 14.6032 11.4485 14.0686 11.4039 13.5187L11.5302 14.4657C11.5599 14.6566 11.6565 15.3058 11.7902 16.0236C11.6713 15.6418 11.4856 15.3058 11.1588 15.1836V15.1759ZM12.9861 14.2519C12.8747 14.2977 12.7856 14.1144 12.7707 13.9159C12.7559 13.7631 12.8227 13.6638 12.8747 13.6409C12.9787 13.6028 13.0976 13.7937 13.105 13.9846C13.105 14.0839 13.0753 14.2137 12.9861 14.2519ZM13.9147 15.5654C13.9518 15.0538 13.9147 14.3741 13.417 14.313V14.2519C13.6918 13.8166 13.8552 13.3126 13.8924 12.7933C14.0335 13.1598 14.2638 13.45 14.6204 13.3202C14.2489 14.0228 14.0558 14.7865 13.9147 15.5578V15.5654ZM15.1478 11.747C15.1181 11.2124 14.7541 10.5709 14.2118 10.6549C13.8033 10.7237 13.6918 11.2582 13.6844 11.663C13.6175 11.5255 13.5358 11.3957 13.4318 11.2888C13.8701 10.9757 13.989 9.61633 13.9741 9.08939V8.99011C14.2638 10.044 14.6426 10.9986 15.0586 10.8764C15.3929 10.7695 15.5043 9.76143 15.5192 9.31086H15.5638C15.6009 9.58578 15.6752 9.86071 15.7717 10.1204L15.7495 10.128C15.2072 10.2807 15.1329 11.1895 15.1478 11.747Z" fill="url(#paint1_linear_11_253)"/>
<path d="M5.1642 3.34654C5.23848 3.38472 5.08249 3.89639 5.35733 4.22477C5.08991 4.01858 4.98592 3.66728 5.08249 3.45345C5.1122 3.38472 5.14191 3.3389 5.1642 3.34654ZM8.60349 3.11743C8.55892 3.12507 8.46235 2.79669 8.24693 2.75086C8.32864 2.74323 8.40293 2.77378 8.46978 2.8196C8.53664 2.87305 8.5812 2.94179 8.60349 3.02579V3.11743ZM11.3817 2.63631C11.352 2.69741 11.3297 2.73559 11.3148 2.72032C11.2777 2.66686 11.4634 2.11701 11.352 1.67407C11.4782 1.97955 11.4857 2.40721 11.3817 2.63631ZM14.8432 11.2354C14.8432 11.2812 14.8358 11.327 14.821 11.3347C14.7467 11.3499 14.7021 10.9452 14.3381 10.8383C14.6427 10.8612 14.8432 11.0445 14.8432 11.2354ZM15.9055 6.01943C15.9129 6.06525 15.9055 6.09579 15.8981 6.09579C15.8683 6.07288 15.7866 5.69104 15.5861 5.4543C15.7421 5.59176 15.8758 5.84378 15.9055 6.01943ZM15.0364 5.89724L15.029 5.95833C14.9992 5.94306 14.9472 5.62995 14.7912 5.4543C14.925 5.56885 15.029 5.75977 15.0364 5.89724ZM14.1747 5.43139C14.197 5.50012 14.2044 5.54594 14.1821 5.53831C14.1153 5.53067 13.8999 4.99609 13.5359 4.75171C13.8256 4.88154 14.1004 5.18701 14.1747 5.43139ZM12.533 4.97318C12.5479 5.04191 12.533 5.11064 12.5182 5.10301C12.2508 4.97318 11.9759 4.45388 11.5822 4.25532C11.9388 4.34696 12.4439 4.60661 12.533 4.97318ZM12.1913 8.89851C12.0875 8.85098 12.0001 8.77233 11.9404 8.67287C11.8808 8.5734 11.8517 8.45774 11.8571 8.34102C11.8645 8.26465 11.8719 8.21883 11.9016 8.21883C11.9536 8.22647 11.9462 8.70759 12.1913 8.89851ZM10.6834 8.61595C10.6908 8.67704 10.6908 8.7305 10.676 8.7305C10.6091 8.73814 10.4828 8.21883 10.1709 8.11192C10.2971 8.12719 10.416 8.18065 10.5051 8.27229C10.6017 8.36393 10.6611 8.48612 10.6834 8.61595ZM9.29432 7.43988C9.35375 7.43224 9.45774 7.94391 9.77716 8.05846C9.51717 8.05082 9.30175 7.81408 9.27946 7.57734C9.27203 7.50097 9.27203 7.44751 9.29432 7.43988ZM9.78459 4.81281C9.80687 4.88918 9.77716 4.95791 9.7623 4.95791C9.48745 4.88154 9.21261 4.36987 8.71491 4.36987C9.09376 4.27059 9.68059 4.38515 9.78459 4.81281ZM7.31097 5.56122C7.3184 5.64522 7.31097 5.72159 7.28126 5.73686C7.11783 5.8056 6.90241 5.1641 6.30072 5.27865C6.80585 5.08773 7.2664 5.24811 7.31097 5.56122ZM4.58479 8.20356C4.88935 8.16537 5.14934 8.48612 5.23105 8.79923C5.25334 8.89087 5.20877 8.94433 5.18648 8.95197C5.09734 8.98251 4.94878 8.28756 4.58479 8.20356ZM4.87449 6.21035C4.86707 6.31726 4.85221 6.4089 4.8225 6.42418C4.71107 6.49291 4.68879 5.75214 4.41394 5.83614C4.68879 5.65286 4.89678 5.83614 4.87449 6.21035ZM4.87449 13.221C4.85221 13.1599 4.85221 13.1369 4.86707 13.1446C4.88935 13.1522 5.03792 13.4806 5.22362 13.6333C5.07506 13.5417 4.94878 13.3966 4.87449 13.221ZM5.53561 14.2367C5.52075 14.1985 5.52075 14.1756 5.52818 14.1832C5.5579 14.1908 5.6916 14.4887 5.86245 14.6338C5.72132 14.5345 5.60989 14.397 5.53561 14.2367ZM6.76128 15.1072C6.67214 15.0691 6.38243 14.3818 5.94417 14.0381C6.28587 14.2214 6.65728 14.672 6.75385 14.9698C6.77613 15.0538 6.78356 15.1149 6.76128 15.1072ZM8.72234 14.3283C8.61835 14.3283 8.2915 13.7403 7.76409 13.5493C8.18008 13.6104 8.60349 13.9159 8.70749 14.1832C8.7372 14.2748 8.74463 14.3283 8.72234 14.3283ZM9.7623 17.2379C9.69545 17.2074 9.55431 16.7721 9.22004 16.5048C9.50231 16.6499 9.74002 16.9248 9.76973 17.1386C9.78459 17.1997 9.77716 17.2379 9.7623 17.2379ZM7.83095 12.0983C7.74181 12.1289 7.24411 11.686 6.68699 11.6936C7.10298 11.6096 7.59324 11.747 7.77152 11.9685C7.83095 12.0372 7.85323 12.0907 7.83095 12.0983ZM9.77716 11.686C10.1263 11.7241 10.5274 11.8616 10.6091 12.2053C10.6314 12.2816 10.6017 12.3504 10.5868 12.3504C10.364 12.3045 10.0817 11.9303 9.73259 11.7547L9.77716 11.686ZM10.1857 14.672C10.1709 14.5956 10.1709 14.5421 10.1857 14.5421C10.2377 14.5345 10.3788 15.0843 10.6463 15.2294C10.4383 15.1989 10.2377 14.9163 10.1857 14.672ZM11.4857 16.2222C11.4337 16.2375 11.3297 15.68 11.0548 15.5655C11.2702 15.5807 11.4634 15.8175 11.4931 16.0924C11.5005 16.1611 11.5005 16.2146 11.4857 16.2222ZM12.637 13.8854C12.6519 13.809 12.6668 13.7555 12.6816 13.7555C12.7336 13.7479 12.6593 14.2672 12.8376 14.397C12.6668 14.3665 12.5925 14.1068 12.637 13.8854ZM13.6844 14.9621C13.6844 15.0232 13.677 15.0767 13.6621 15.0843C13.6101 15.1225 13.5953 14.6261 13.3279 14.6032C13.5507 14.5498 13.6993 14.7178 13.6844 14.9621ZM13.2165 11.8005C13.0679 11.8387 12.9267 11.4034 12.3473 11.2507L12.3622 11.2201C12.8673 11.2507 13.2462 11.4721 13.261 11.6783C13.2684 11.747 13.2462 11.7929 13.2165 11.8005ZM15.9946 10.8154C15.9946 10.8612 15.9798 10.8917 15.9723 10.8917C15.9352 10.907 15.9278 10.5633 15.7124 10.4564C15.7941 10.4717 15.8683 10.5175 15.9203 10.5786C15.9723 10.6473 15.9946 10.7313 15.9946 10.8154Z" fill="white"/>
<linearGradient id="paint0_linear_11_253" x1="7.79602" y1="1.38228" x2="9.68561" y2="6.39334" gradientUnits="userSpaceOnUse">
<stop stop-color="#11998E"/>
<stop offset="1" stop-color="#38EF7D"/>
</linearGradient>
<linearGradient id="paint1_linear_11_253" x1="9.06178" y1="4.66232" x2="12.267" y2="18.2738" gradientUnits="userSpaceOnUse">
<stop stop-color="#EE0979"/>
<stop offset="1" stop-color="#FF6A00"/>
</linearGradient>
</svg>

<svg xmlns="http://www.w3.org/2000/svg" viewBox="0 0 20 20">
  <rect width="100%" height="100%" fill="#FFE100"/>
  <path fill="#1D1D1B" d="M8.77 6.93c-.89 0-1.76-.3-2.48-.86-.65-.5-1.76-1.49-1.85-2.38a1 1 0 0 1 .23-.75c.17-.21.43-.33.75-.36h.1c.57 0 1.3.32 2.01.87-.05-.68.14-1.17.53-1.34a.64.64 0 0 1 .22-.05h.03c.42 0 .74.44.98.95.4-1.17 1.09-2.2 1.81-2.26h.05c.1 0 .21.02.3.07 1.02.45.59 2.52.22 3.54A4.36 4.36 0 0 1 9.5 6.84l-.06.03-.08.01c-.2.03-.39.05-.59.05Z"/>
  <path fill="url(#a)" d="M9 6.37c-.86.06-1.71-.2-2.41-.75-.96-.75-1.59-1.5-1.63-1.98a.42.42 0 0 1 .1-.33c.08-.12.2-.17.39-.18.56-.04 1.45.42 2.22 1.13l.72.68-.25-.99c-.17-.66-.12-1.23.11-1.33h.01l.05-.02c.12-.01.43.31.73 1.2l.31.96.25-.98c.36-1.44 1.08-2.45 1.53-2.48.04 0 .08 0 .13.02.49.22.35 1.65-.07 2.85a3.83 3.83 0 0 1-1.9 2.18L9 6.37Z"/>
  <path fill="#1D1D1B" d="M10.74 18.75c-.24 0-.47-.1-.65-.25-.2.12-.43.18-.66.17-.31.01-.62-.1-.86-.3-.2-.15-.38-.34-.55-.54a.62.62 0 0 1-.29.07.95.95 0 0 1-.56-.23 12.7 12.7 0 0 1-3.09-4.07c-.09-.17-.48-1-.53-1.69A3.47 3.47 0 0 1 3 10.77a1.6 1.6 0 0 1 .23-1.34 2.26 2.26 0 0 1-.44-1.88c.24-.9.72-1.7 1.4-2.32.19-.19.39-.29.6-.29a.64.64 0 0 1 .5.22c.2-.23.45-.43.71-.58.25-.13.53-.21.81-.21.3 0 .6.1.85.26.15-.3.37-.55.65-.73.27-.18.6-.27.92-.27a1.57 1.57 0 0 1 1.16.53c.06-.1.1-.18.17-.26a.99.99 0 0 1 .96-.32c.56.1 1.08.39 1.48.82l.08-.12a.64.64 0 0 1 .49-.24c.04 0 .08 0 .12.02.21.03.56.2.94.72a.6.6 0 0 1 .3.02h.01a.55.55 0 0 1 .63-.1c1.15.52 1.53 2.31 1.65 3.72.05.62.1 2-.49 2.54v.1a12.9 12.9 0 0 1-2.24 6.02c-.06.07-.18.23-.37.32-.15.36-.38.66-.77.67h-.01a.55.55 0 0 1-.25-.05.7.7 0 0 1-.44.24h-.15l-.2-.01-.03.03a.88.88 0 0 1-.65.31h-.02a.64.64 0 0 1-.31-.08c-.1.11-.23.2-.38.22l-.17.02Z"/>
  <path fill="url(#b)" d="M16.64 8.42c-.09-1.03-.38-2.84-1.34-3.28-.24-.11-.02.78.03 1.06l-.03-.01c-.1-.25-.35-.86-.58-.92-.19-.05-.2.22-.14.56h-.02c-.21-.5-.63-1.2-1.03-1.3-.31-.05-.24.87-.14 1.53-.42-1-1.07-1.83-2.03-2-.84-.16-.78 1.24-.7 2.06-.13-.97-.72-2.25-1.83-1.95-.66.18-.93.79-1.03 1.5-.25-.7-.96-1.03-1.63-.66-.47.25-.89.76-1.08 1.32-.04-.45-.17-1.2-.63-.75A4.24 4.24 0 0 0 3.23 7.6c-.15.72.14 1.53.86 1.76v.04l-.14.03c-.46.14-.64.68-.53 1.12.11.4.3.78.57 1.1-.04.53.35 1.4.47 1.64a12.3 12.3 0 0 0 2.95 3.88c.6.48.33-.51.16-1.03.4.74.62 1.24 1.24 1.74.45.36 1.28.17 1.16-.42.23.55.55.72.77.67.19-.04.23-.49.17-.88a9.2 9.2 0 0 0-.12-.63h.03c.13.49.4 1.36.72 1.36.29 0 .48-.34.44-.77l-.05-.46c.19.86.34.94.58.9.28-.04.34-.62.35-1.19l-.01-.42.02-.01c.05.38.04 1.43.4 1.43.27-.01.4-.61.51-1.06-.04.36 0 .6.23.27a12.2 12.2 0 0 0 2.13-5.73c.02-.13.01-.26-.01-.4.04.01.1 0 .13-.02.43-.22.43-1.52.38-2.11Zm-4.46-.22h.03c.12 0 .27.23.28.39 0 .11-.03.2-.14.2-.14 0-.25-.19-.26-.36-.01-.11.02-.19.09-.23Zm.25 1.52.05-.02c.05.28.16.83.34 1.21-.1-.03-.23-.04-.34-.04.05-.37 0-.85-.05-1.15Zm-1.75-3.43.03.26c.03.33.14 1.28.32 2.24-.15-.37-.38-.67-.72-.78v-.06c.4-.49.43-1.06.37-1.66Zm.25 5.2c.38-.04.47-.8.44-1.27.12.38.25.7.4.9-.44.44-.46 1.35-.39 2.15-.11-.92-.59-1.87-1.48-1.95.05-.41 0-.99-.04-1.3l-.15-.87h.04c.18.6.55 2.4 1.18 2.34ZM9.8 7.83c-.14.03-.28-.18-.3-.39-.02-.16.06-.26.13-.28.14-.03.27.2.3.41 0 .1 0 .23-.13.26Zm-4.8-.62c.07.47.3.68.67.55.05-.01.18-.14.23-.18a5.98 5.98 0 0 0-.07 1.86c.07.6.33 1.5.77 2.07-.78.11-.66.95-.43 1.63.13.39.28.77.45 1.15-.23-.27-.5-.46-.81-.47l-.02-.04c.16-.08.34-.28.07-1.02a3.85 3.85 0 0 0-.23-.5c.51-.4.32-1.7.23-2.2-.15-.81-.48-2-1.46-2.12V7.9c.26-.16.47-.4.6-.69Zm.4 6.35c-.1-.03-.25-.2-.31-.35-.04-.09-.03-.16.03-.16.1.02.27.22.33.36.04.1.05.16-.04.15Zm.6 1.03c-.11-.03-.26-.22-.33-.36-.05-.1-.04-.18.03-.16.09.02.28.25.35.39.03.09.03.16-.06.13Zm1.81-1.27-.01-.05c.27-.07.59-.06.42-.87a.97.97 0 0 0-.31-.54c.38-.37.32-1.29.24-1.74A7.7 7.7 0 0 0 7.1 7.24c.33.08.54-.15.67-.46.03.45.08.87.13 1.19.08.7.59 2.75 1.2 3.53-.57.45-.44 1.55-.25 2.4-.24-.34-.58-.59-1.04-.58Zm1.2 2.81c.19-.1.28-.27.32-.48l.3.93c-.14-.21-.32-.37-.58-.32l-.04-.13ZM10.69 15c-.11.03-.24-.2-.27-.4-.03-.16.01-.25.07-.26.1-.02.26.2.3.4.01.12-.01.25-.1.26Zm.47.19v-.07c.27-.5.29-1.04.24-1.6l.13.96c.03.19.13.84.26 1.55-.12-.38-.3-.71-.63-.84Zm1.83-.93c-.12.05-.2-.14-.22-.33-.01-.16.05-.26.1-.28.1-.04.23.15.24.34 0 .1-.03.23-.12.27Zm.92 1.32c.04-.52 0-1.2-.5-1.26v-.06c.28-.43.45-.94.48-1.46.14.37.37.66.73.53-.37.7-.56 1.47-.7 2.24Zm1.24-3.82c-.03-.54-.4-1.18-.94-1.1-.4.07-.52.6-.53 1.01a1.43 1.43 0 0 0-.25-.37c.44-.31.56-1.67.54-2.2v-.1c.3 1.05.67 2 1.09 1.89.33-.11.44-1.12.46-1.57h.04c.04.28.12.55.21.81h-.02c-.54.16-.62 1.07-.6 1.63Z"/>
  <path fill="#fff" d="M5.16 3.35c.08.03-.08.55.2.87-.27-.2-.37-.55-.28-.77.03-.07.06-.11.08-.1Zm3.44-.23c-.04 0-.14-.32-.35-.37.08 0 .15.02.22.07s.11.12.13.2v.1Zm2.78-.48c-.03.06-.05.1-.07.08-.03-.05.15-.6.04-1.05.13.31.14.74.03.97Zm3.46 8.6c0 .04 0 .09-.02.1-.07.01-.12-.4-.48-.5.3.02.5.2.5.4Zm1.07-5.22-.01.08c-.03-.03-.11-.4-.31-.65.15.14.29.4.32.57Zm-.87-.12-.01.06c-.03-.02-.08-.33-.24-.5.14.1.24.3.25.44Zm-.87-.47c.03.07.03.12.01.1-.06 0-.28-.53-.64-.78.29.13.56.44.63.68Zm-1.64-.46c.02.07 0 .14-.01.13-.27-.13-.54-.65-.94-.84.36.09.86.35.95.71ZM12.2 8.9a.57.57 0 0 1-.25-.23.6.6 0 0 1-.08-.33c0-.08.01-.12.04-.12.05 0 .05.49.3.68Zm-1.5-.28-.01.11c-.07 0-.2-.51-.5-.62.12.02.24.07.33.16.1.1.15.22.17.35Zm-1.4-1.18c.06 0 .17.5.49.62-.26 0-.48-.25-.5-.48l.01-.14Zm.5-2.63c.02.08-.01.15-.03.15-.27-.08-.55-.59-1.05-.59.38-.1.97.02 1.07.44Zm-2.48.75c0 .09 0 .16-.03.18-.16.07-.38-.58-.98-.46.5-.2.97-.03 1.01.28ZM4.58 8.2c.3-.03.57.29.65.6.02.1-.02.14-.04.15-.1.03-.24-.66-.6-.75Zm.3-1.99c-.01.1-.03.2-.06.21-.1.07-.13-.67-.4-.58.27-.19.48 0 .45.37Zm0 7.01c-.03-.06-.03-.08-.01-.08.02.01.17.34.35.5a.9.9 0 0 1-.35-.42Zm.66 1.02c-.02-.04-.02-.06-.01-.06.03.01.16.3.33.45a1 1 0 0 1-.32-.4Zm1.22.87c-.09-.04-.38-.73-.82-1.07a2 2 0 0 1 .81.93c.03.08.03.14.01.14Zm1.96-.78c-.1 0-.43-.59-.96-.78.42.06.84.37.95.63.03.1.03.15.01.15Zm1.04 2.9c-.06-.02-.2-.46-.54-.73.28.15.52.42.55.64v.1ZM7.83 12.1c-.09.03-.59-.41-1.14-.4.41-.09.9.05 1.08.27.06.07.08.12.06.13Zm1.95-.41c.35.03.75.17.83.52.02.07 0 .14-.02.14-.23-.05-.5-.42-.86-.6l.05-.06Zm.4 2.98v-.13c.06 0 .2.54.47.69-.21-.03-.41-.31-.46-.56Zm1.3 1.55c-.05.02-.15-.54-.43-.65.22.01.41.25.44.52v.13Zm1.16-2.33c.01-.08.03-.13.04-.13.05-.01-.02.5.16.64-.17-.03-.25-.3-.2-.51Zm1.04 1.07c0 .06 0 .12-.02.12-.05.04-.06-.45-.33-.48.22-.05.37.12.35.36Zm-.46-3.16c-.15.04-.3-.4-.87-.55l.01-.03c.5.03.89.25.9.46 0 .07-.01.11-.04.12Zm2.77-.98c0 .04-.01.07-.02.07-.03.02-.04-.33-.26-.43.08.01.16.06.21.12.05.07.07.15.07.24Z"/>
  <linearGradient id="a" x1="7.8" x2="9.69" y1="1.38" y2="6.39" gradientUnits="userSpaceOnUse">
    <stop stop-color="#11998E"/>
    <stop offset="1" stop-color="#38EF7D"/>
  </linearGradient>
  <linearGradient id="b" x1="9.06" x2="12.27" y1="4.66" y2="18.27" gradientUnits="userSpaceOnUse">
    <stop stop-color="#EE0979"/>
    <stop offset="1" stop-color="#FF6A00"/>
  </linearGradient>
</svg>
